X:3567
T:Latrigg Side
O:england
C:Wm. Irwin
M:4/4
A:North-West
R:Hornpipe
K:F
cB|\
Afef afcA| Gg^fg bgec| cfef cfef| gfed cBAG|\
Acfe afcA| Gg^fg bgec| bgaf edc=B| c2c2 c2::\
ef|\
gc=Bc acBc| bgaf edcB| Afef Bg^fg| efde cdec|\
fc=Bc gcBc| ac=Bc bgec| fagb afge| g2f2 f2:|


